X:1
T:Schule fuer die Gitarre - Uebungsstuecke
T:No 11 - Allegretto
T:No 11 - Allegretto
T:Schule für die Gitarre - Übungsstücke
T:Johann Kaspar Mertz (1806-1856)
T:		
C:Johann Kaspar Mertz (1806-1856)
Z:
%%score ( 1 2 )
L:1/8
Q:1/4=116
M:6/8
K:A
V:1 treble-8 nm="Klassische Gitarre"
V:2 treble-8 
V:1
!p!"^Allegretto" e2 !3!c !2!A2 c | e2 c A3 | !>!!3!!1![^df]3 !>![=d=f]3 | [ce]3 z2 z | %4
 e2!<(! c A2 =G | !1!G2 [GB]!<)! [GBe]3 | !3!!0!!4![ABf]3 [AB]3 | [GBe]2 z z2 e :: %8
 [Bd]3 !>![^Ace]3 | [Bd]3 z2 e | g fe g fe | [^Bf]3 [ce]2 e | [Bd]3 !>![^Ace]3 | [Bd]3 z2 e | %14
 g fe dcB | A2 c A2 z :| %16
V:2
 A,2 A, A,2 A, | A,2 A, A,2 A, | !>!A,2 A, A,2 A, | A,2 A, A,2 A, | A,2 A, A,2 ^A, | %5
 !2!B,2 B, B,2!>(! B, | !2!B,2 B, B,2 B, | E,2!>)! E, E,2 E, :: E,2 E, E,2 E, | E,2 E, E,2 E, | %10
 E,3 E,3 | A,2 A, A,2 A, | E,2 E, E,2 E, | E,2 E, E,2 E, | E,6 | A,2 A, A,2 z :| %16

